X:232
T:Tom and Sally
%%VWML:SBG-1-2-740-0
F:http://www.vwml.org/record/SBG/1/2/740
Z:Original Sibelius transcriptions by M. & S. Graebe
M:3/4
I:linebreak $
K:F
V:1 treble nm="P1"
V:1
 z A | d e | f3 e/d/ ^c d | e A z B A G | F3 E/D/ F G | A2 z A d e | f3 e/d/ e f | g c z c B A |$ %8
 G3 g c e | f2 z A c A | F3 e d c | B2 z A B G | g3 f/e/ f e/d/ | !fermata!^c2 z2 d2 | %14
 A G/F/ G2 A2 | F D z2 x2 | %16

